svgs/thin/toilet-paper-blank-under.svg

<svg xmlns="http://www.w3.org/2000/svg" viewBox="0 0 512 512"><!-- Font Awesome Pro 6.0.0-alpha2 by @fontawesome - https://fontawesome.com License - https://fontawesome.com/license (Commercial License) --><path d="M400 120C377.203 120 360 150.953 360 192S377.203 264 400 264S440 233.047 440 192S422.797 120 400 120ZM400 248C388.672 248 376 224.047 376 192S388.672 136 400 136S424 159.953 424 192S411.328 248 400 248ZM400 0H112C50.25 0 0 86.125 0 192S50.25 384 112 384H400C440.762 384 476.406 346.348 496 290.381V472C496 485.234 485.234 496 472 496H168C154.766 496 144 485.234 144 472V424C144 419.578 140.422 416 136 416S128 419.578 128 424V472C128 494.062 145.938 512 168 512H472C494.062 512 512 494.062 512 472V192C512 86.125 461.75 0 400 0ZM112 368C59.062 368 16 289.047 16 192S59.062 16 112 16H355.375C315.777 45.627 288 113.32 288 192S315.777 338.373 355.375 368H112ZM400 368C347.062 368 304 289.047 304 192S347.062 16 400 16S496 94.953 496 192S452.938 368 400 368Z"/></svg>

<svg xmlns="http://www.w3.org/2000/svg" viewBox="0 0 512 512"><!--! Font Awesome Pro 6.3.0 by @fontawesome - https://fontawesome.com License - https://fontawesome.com/license (Commercial License) Copyright 2023 Fonticons, Inc. --><path d="M400 120c-22.8 0-40 30.95-40 72s17.2 72 40 72S440 233 440 192S422.8 120 400 120zM400 248c-11.33 0-24-23.95-24-56S388.7 136 400 136S423.1 159.1 423.1 192S411.3 248 400 248zM399.1 0H112C50.25 0 0 86.13 0 192s50.25 192 112 192H399.1c40.76 0 76.41-37.65 96-93.62V472c0 13.23-10.77 24-24 24h-304c-13.23 0-24-10.77-24-24v-48C144 419.6 140.4 416 136 416S128 419.6 128 424v48C128 494.1 145.9 512 168 512h304c22.06 0 40-17.94 40-40V192C512 86.13 461.7 0 399.1 0zM112 368c-52.94 0-96-78.95-96-176s43.06-176 96-176h243.4C315.8 45.63 287.1 113.3 287.1 192s27.78 146.4 67.38 176H112zM400 368c-52.94 0-96-78.95-96-176s43.06-176 96-176s96 78.95 96 176S452.9 368 400 368z"/></svg>
